brandFactory_export/3.Masa/Miembros_3Masa.svg

<?xml version="1.0" encoding="UTF-8"?>
<svg width="24px" height="24px" viewBox="0 0 24 24" version="1.1" xmlns="http://www.w3.org/2000/svg" xmlns:xlink="http://www.w3.org/1999/xlink">
    <title>3.Masa/Miembros_3Masa</title>
    <g id="Symbols" stroke="none" stroke-width="1" fill="none" fill-rule="evenodd">
        <g id="3.Masa/Miembros_3Masa" fill="#5CB615" fill-rule="nonzero">
            <path d="M11.7781513,3.02352941 C13.1966387,3.02352941 14.3058824,3.41344538 15.0722689,4.18655462 C15.8722689,4.98991597 16.2789916,6.17647059 16.2789916,7.71260504 C16.2789916,9.2487395 15.8722689,10.4352941 15.0722689,11.2319328 C14.3058824,11.9983193 13.1966387,12.3882353 11.7781513,12.3882353 C10.3596639,12.3882353 9.25042017,11.9983193 8.48739496,11.2319328 C7.69411765,10.4352941 7.2907563,9.2487395 7.2907563,7.71260504 C7.2907563,6.17310924 7.69411765,4.98655462 8.48739496,4.18655462 C9.25378151,3.41344538 10.3596639,3.02352941 11.7781513,3.02352941 Z M4.85378151,8.85546218 C5.6,8.85546218 6.18487395,9.0605042 6.58823529,9.46722689 C7.00840336,9.88739496 7.22016807,10.512605 7.22016807,11.3226891 C7.22016807,12.1327731 7.00840336,12.7546218 6.58487395,13.1747899 C6.18151261,13.5781513 5.59663866,13.7831933 4.85042017,13.7831933 C4.10420168,13.7831933 3.52268908,13.5781513 3.11932773,13.1747899 C2.69915966,12.7546218 2.48739496,12.1327731 2.48739496,11.3226891 C2.48739496,10.512605 2.69915966,9.88739496 3.11596639,9.46722689 C3.52605042,9.0605042 4.10756303,8.85546218 4.85378151,8.85546218 Z M18.7092437,8.88907563 C19.4453782,8.88907563 20.0235294,9.09411765 20.4235294,9.49411765 C20.8369748,9.91092437 21.0453782,10.5294118 21.0453782,11.3294118 C21.0453782,12.1294118 20.8369748,12.7478992 20.4201681,13.1613445 C20.0235294,13.5613445 19.4453782,13.7630252 18.7058824,13.7630252 C17.9663866,13.7630252 17.3882353,13.5613445 16.9882353,13.1613445 C16.5714286,12.7445378 16.3630252,12.1294118 16.3630252,11.3294118 C16.3630252,10.5294118 16.5747899,9.91092437 16.9882353,9.49411765 C17.3915966,9.0907563 17.9731092,8.88907563 18.7092437,8.88907563 Z M14.5176471,13.9983193 C16.1815126,13.9983193 17.5495798,14.5563025 18.4739496,15.6151261 C19.3210084,16.5865546 19.7680672,17.9344538 19.7680672,19.5142857 L19.7680672,21.1647059 C19.7680672,21.4773109 19.5394958,21.7294118 19.2571429,21.7294118 L4.31596639,21.7294118 C4.03361345,21.7294118 3.80504202,21.4773109 3.80504202,21.1647059 L3.80504202,19.5142857 C3.80504202,17.9344538 4.2487395,16.589916 5.09243697,15.6184874 C6.01008403,14.5596639 7.37478992,14.0016807 9.04201681,14.0016807 L14.5176471,14.0016807 L14.5176471,13.9983193 Z M4.36638655,14.8890756 C4.35966387,14.8957983 4.34957983,14.902521 4.34285714,14.912605 C3.33109244,16.0789916 2.79663866,17.6722689 2.79663866,19.5142857 L2.79663866,20.4117647 L1.03193277,20.4117647 C0.463865546,20.4117647 0,19.9310924 0,19.3361345 L0,18.492437 C0,17.4773109 0.312605042,16.6033613 0.907563025,15.9579832 C1.55294118,15.2588235 2.48067227,14.8890756 3.59327731,14.8890756 L4.36638655,14.8890756 L4.36638655,14.8890756 Z M22.7159664,15.9378151 C23.3109244,16.5831933 23.6235294,17.4605042 23.6235294,18.4722689 L23.6235294,19.3159664 C23.6235294,19.9109244 23.1596639,20.3915966 22.5915966,20.3915966 L20.7731092,20.3915966 L20.7731092,19.5109244 C20.7731092,17.6689076 20.2352941,16.0789916 19.2168067,14.9092437 L19.1764706,14.8689076 L20.0302521,14.8689076 C21.1462185,14.8689076 22.0739496,15.2386555 22.7159664,15.9378151 Z" id="Miembros_3Masa"></path>
        </g>
    </g>
</svg>

<svg width="24" height="24" viewBox="0 0 24 24" xmlns="http://www.w3.org/2000/svg"><path d="M11.778 3.024c1.419 0 2.528.39 3.294 1.163.8.803 1.207 1.99 1.207 3.526 0 1.536-.407 2.722-1.207 3.519-.766.766-1.875 1.156-3.294 1.156-1.418 0-2.528-.39-3.29-1.156-.794-.797-1.197-1.983-1.197-3.52 0-1.539.403-2.725 1.196-3.525.767-.774 1.873-1.163 3.291-1.163zM4.854 8.855c.746 0 1.33.206 1.734.612.42.42.632 1.046.632 1.856s-.212 1.432-.635 1.852c-.403.403-.988.608-1.735.608-.746 0-1.327-.205-1.73-.608-.42-.42-.633-1.042-.633-1.852s.212-1.436.629-1.856c.41-.406.992-.612 1.738-.612zm13.855.034c.736 0 1.315.205 1.715.605.413.417.621 1.035.621 1.835s-.208 1.419-.625 1.832c-.396.4-.975.602-1.714.602-.74 0-1.318-.202-1.718-.602-.417-.416-.625-1.032-.625-1.832s.212-1.418.625-1.835c.404-.403.985-.605 1.721-.605zM14.518 14c1.664 0 3.032.557 3.956 1.616.847.972 1.294 2.32 1.294 3.9v1.65c0 .312-.229.564-.51.564H4.315c-.282 0-.511-.252-.511-.564v-1.65c0-1.58.444-2.925 1.287-3.897.918-1.058 2.283-1.616 3.95-1.616h5.476v-.004zm-10.152.89c-.006.007-.016.014-.023.024-1.012 1.166-1.546 2.76-1.546 4.601v.898H1.032c-.568 0-1.032-.48-1.032-1.076v-.844c0-1.015.313-1.889.908-2.534.645-.7 1.573-1.069 2.685-1.069h.773zm18.35 1.049c.595.645.908 1.523.908 2.534v.844c0 .595-.464 1.076-1.032 1.076h-1.819v-.881c0-1.842-.538-3.432-1.556-4.602l-.04-.04h.853c1.116 0 2.044.37 2.686 1.069z" fill="#5CB615" fill-rule="nonzero"/></svg>
